src/assets/icons/shopping-bag.svg

<svg width="14" height="14" viewBox="0 0 14 14" fill="none" xmlns="http://www.w3.org/2000/svg">
<g id="shopping-bag">
<g clip-path="url(#clip0_156_4518)">
<path id="Vector" fill-rule="evenodd" clip-rule="evenodd" d="M4.6 3.6C4.6 2.27537 5.67537 1.2 7 1.2C8.32463 1.2 9.4 2.27537 9.4 3.6V4H4.6V3.6ZM3.4 5.2V7C3.4 7.33137 3.66863 7.6 4 7.6C4.33137 7.6 4.6 7.33137 4.6 7V5.2H9.4V7C9.4 7.33137 9.66863 7.6 10 7.6C10.3314 7.6 10.6 7.33137 10.6 7V5.2H12.8V11.8C12.8 12.3486 12.3486 12.8 11.8 12.8H2.2C1.65137 12.8 1.2 12.3486 1.2 11.8V5.2H3.4ZM3.4 4V3.6C3.4 1.61263 5.01263 0 7 0C8.98737 0 10.6 1.61263 10.6 3.6V4H13C13.5554 4 14 4.44463 14 5V11.8C14 13.0114 13.0114 14 11.8 14H2.2C0.988629 14 0 13.0114 0 11.8V5C0 4.44463 0.444629 4 1 4H3.4Z" fill="black"/>
</g>
</g>
<defs>
<clipPath id="clip0_156_4518">
<rect width="14" height="14" fill="white"/>
</clipPath>
</defs>
</svg>

<svg xmlns="http://www.w3.org/2000/svg" fill="none" viewBox="0 0 14 14"><g clip-path="url(#a)"><path fill="#000" fill-rule="evenodd" d="M4.6 3.6a2.401 2.401 0 0 1 4.8 0V4H4.6zM3.4 5.2V7a.6.6 0 0 0 1.2 0V5.2h4.8V7a.6.6 0 0 0 1.2 0V5.2h2.2v6.6c0 .549-.451 1-1 1H2.2c-.549 0-1-.451-1-1V5.2zm0-1.2v-.4a3.601 3.601 0 0 1 7.2 0V4H13c.555 0 1 .445 1 1v6.8c0 1.211-.989 2.2-2.2 2.2H2.2C.989 14 0 13.011 0 11.8V5c0-.555.445-1 1-1z" clip-rule="evenodd"/></g><defs><clipPath id="a"><path fill="#fff" d="M0 0h14v14H0z"/></clipPath></defs></svg>
